;FLAVOR:Marlin
;TIME:8289
;Filament used: 4.45352m
;Layer height: 0.15
;MINX:19.668
;MINY:30.12
;MINZ:0.2
;MAXX:89.872
;MAXY:92.822
;MAXZ:11.9
;Generated with Cura_SteamEngine 4.12.1
M140 S70
M105
M190 S70
M104 S240
M105
M109 S240
M82 ;absolute extrusion mode
; Ender 3 Custom Start G-code
G92 E0 ; Reset Extruder
G28 ; Home all axes
G1 Z2.0 F3000 ; Move Z Axis up little to prevent scratching of Heat Bed
G1 X0.1 Y20 Z0.3 F5000.0 ; Move to start position
G1 X0.1 Y200.0 Z0.3 F1500.0 E15 ; Draw the first line
G1 X0.4 Y200.0 Z0.3 F5000.0 ; Move to side a little
G1 X0.4 Y20 Z0.3 F1500.0 E30 ; Draw the second line
G92 E0 ; Reset Extruder
G1 Z2.0 F3000 ; Move Z Axis up little to prevent scratching of Heat Bed
G1 X5 Y20 Z0.3 F5000.0 ; Move over to prevent blob squish
G92 E0
G92 E0
G1 F2400 E-4
;LAYER_COUNT:80
;LAYER:0
M106 S127.5
G0 F6000 X23.407 Y31.875 Z0.2
;TYPE:SKIRT
G1 F2400 E0
G1 F1200 X24.043 Y31.408 E0.02624
G1 X24.723 Y31.007 E0.0525
G1 X25.441 Y30.677 E0.07878
G1 X26.188 Y30.422 E0.10504
G1 X26.957 Y30.243 E0.1313
G1 X27.741 Y30.143 E0.15758
G1 X28.336 Y30.12 E0.17739
G1 X81.204 Y30.12 E1.93578
G1 X81.993 Y30.16 E1.96206
G1 X82.773 Y30.279 E1.9883
G1 X83.538 Y30.477 E2.01459
G1 X84.278 Y30.751 E2.04083
G1 X84.987 Y31.099 E2.0671
G1 X85.658 Y31.517 E2.09339
G1 X86.282 Y32 E2.11964
G1 X86.719 Y32.405 E2.13946
G1 X86.836 Y32.522 E2.14496
G1 X87.366 Y33.108 E2.17124
G1 X87.833 Y33.744 E2.19748
G1 X88.234 Y34.424 E2.22374
G1 X88.564 Y35.142 E2.25002
G1 X88.819 Y35.889 E2.27628
G1 X88.998 Y36.658 E2.30254
G1 X89.098 Y37.442 E2.32882
G1 X89.121 Y38.036 E2.34859
G1 X89.122 Y45.538 E2.59811
G1 X89.155 Y45.602 E2.60051
G1 X89.449 Y46.335 E2.62677
G1 X89.667 Y47.094 E2.65304
G1 X89.807 Y47.871 E2.6793
G1 X89.871 Y48.866 E2.71246
G1 X89.872 Y74.075 E3.55092
G1 X89.832 Y74.863 E3.57716
G1 X89.713 Y75.644 E3.60343
G1 X89.515 Y76.408 E3.62968
G1 X89.241 Y77.149 E3.65596
G1 X89.121 Y77.393 E3.66501
G1 X89.121 Y84.905 E3.91486
G1 X89.081 Y85.694 E3.94113
G1 X88.962 Y86.474 E3.96737
G1 X88.764 Y87.239 E3.99366
G1 X88.49 Y87.979 E4.0199
G1 X88.142 Y88.688 E4.04617
G1 X87.724 Y89.359 E4.07247
G1 X87.241 Y89.983 E4.09871
G1 X86.836 Y90.42 E4.11853
G1 X86.719 Y90.537 E4.12403
G1 X86.133 Y91.067 E4.15031
G1 X85.497 Y91.534 E4.17655
G1 X84.817 Y91.935 E4.20281
G1 X84.099 Y92.265 E4.22909
G1 X83.352 Y92.52 E4.25535
G1 X82.583 Y92.699 E4.28161
G1 X81.799 Y92.799 E4.30789
G1 X81.204 Y92.822 E4.3277
G1 X28.336 Y92.822 E6.0861
G1 X27.547 Y92.782 E6.11237
G1 X26.767 Y92.663 E6.13861
G1 X26.002 Y92.465 E6.1649
G1 X25.262 Y92.191 E6.19114
G1 X24.553 Y91.843 E6.21741
G1 X23.882 Y91.425 E6.2437
G1 X23.258 Y90.942 E6.26995
G1 X22.821 Y90.537 E6.28977
G1 X22.704 Y90.42 E6.29527
G1 X22.174 Y89.834 E6.32155
G1 X21.707 Y89.198 E6.34779
G1 X21.306 Y88.518 E6.37405
G1 X20.976 Y87.8 E6.40033
G1 X20.721 Y87.053 E6.42659
G1 X20.542 Y86.284 E6.45285
G1 X20.442 Y85.5 E6.47913
G1 X20.419 Y84.906 E6.4989
G1 X20.418 Y77.405 E6.74839
G1 X20.383 Y77.338 E6.7509
G1 X20.09 Y76.604 E6.77719
G1 X19.872 Y75.845 E6.80345
G1 X19.731 Y75.068 E6.82972
G1 X19.668 Y74.075 E6.86281
G1 X19.669 Y48.866 E7.70127
G1 X19.709 Y48.077 E7.72754
G1 X19.829 Y47.296 E7.75382
G1 X20.026 Y46.532 E7.78007
G1 X20.301 Y45.791 E7.80636
G1 X20.419 Y45.55 E7.81528
G1 X20.419 Y38.037 E8.06516
G1 X20.459 Y37.248 E8.09144
G1 X20.578 Y36.468 E8.11768
G1 X20.776 Y35.703 E8.14396
G1 X21.05 Y34.963 E8.17021
G1 X21.398 Y34.254 E8.19648
G1 X21.816 Y33.583 E8.22277
G1 X22.299 Y32.959 E8.24902
G1 X22.704 Y32.522 E8.26884
G1 X22.821 Y32.405 E8.27434
G1 X23.407 Y31.875 E8.30062
G0 F6000 X23.675 Y32.173
G1 F1200 X24.297 Y31.72 E8.32621
G1 X24.962 Y31.334 E8.35178
G1 X25.664 Y31.019 E8.37738
G1 X26.395 Y30.779 E8.40297
G1 X27.146 Y30.616 E8.42853
G1 X27.911 Y30.532 E8.45412
G1 X28.336 Y30.52 E8.46826
G1 X81.204 Y30.52 E10.22666
G1 X81.972 Y30.56 E10.25224
G1 X82.732 Y30.679 E10.27783
G1 X83.475 Y30.877 E10.3034
G1 X84.194 Y31.151 E10.32899
G1 X84.88 Y31.498 E10.35456
G1 X85.527 Y31.914 E10.38014
G1 X86.127 Y32.395 E10.40572
G1 X86.437 Y32.687 E10.41989
G1 X86.554 Y32.804 E10.42539
G1 X87.068 Y33.376 E10.45097
G1 X87.521 Y33.998 E10.47656
G1 X87.907 Y34.663 E10.50213
G1 X88.222 Y35.365 E10.52773
G1 X88.462 Y36.096 E10.55332
G1 X88.625 Y36.847 E10.57888
G1 X88.709 Y37.612 E10.60447
G1 X88.721 Y38.036 E10.61858
G1 X88.722 Y45.641 E10.87152
G1 X88.942 Y46.118 E10.88899
G1 X89.19 Y46.846 E10.91457
G1 X89.361 Y47.596 E10.94016
G1 X89.454 Y48.36 E10.96576
G1 X89.471 Y48.866 E10.9826
G1 X89.472 Y74.075 E11.82105
G1 X89.432 Y74.843 E11.84663
G1 X89.313 Y75.603 E11.87222
G1 X89.115 Y76.346 E11.89779
G1 X88.841 Y77.065 E11.92338
G1 X88.721 Y77.302 E11.93222
G1 X88.721 Y84.905 E12.18509
G1 X88.681 Y85.673 E12.21067
G1 X88.562 Y86.433 E12.23626
G1 X88.364 Y87.176 E12.26183
G1 X88.09 Y87.895 E12.28743
G1 X87.743 Y88.581 E12.31299
G1 X87.327 Y89.228 E12.33858
G1 X86.846 Y89.828 E12.36416
G1 X86.554 Y90.138 E12.37832
G1 X86.437 Y90.255 E12.38382
G1 X85.865 Y90.769 E12.4094
G1 X85.243 Y91.222 E12.43499
G1 X84.578 Y91.608 E12.46057
G1 X83.876 Y91.923 E12.48616
G1 X83.145 Y92.163 E12.51175
G1 X82.394 Y92.326 E12.53731
G1 X81.629 Y92.41 E12.56291
G1 X81.204 Y92.422 E12.57705
G1 X28.336 Y92.422 E14.33544
G1 X27.568 Y92.382 E14.36102
G1 X26.808 Y92.263 E14.38661
G1 X26.065 Y92.065 E14.41218
G1 X25.346 Y91.791 E14.43777
G1 X24.66 Y91.444 E14.46334
G1 X24.013 Y91.028 E14.48893
G1 X23.413 Y90.547 E14.5145
G1 X23.103 Y90.255 E14.52867
G1 X22.986 Y90.138 E14.53417
G1 X22.472 Y89.566 E14.55975
G1 X22.019 Y88.944 E14.58534
G1 X21.633 Y88.279 E14.61092
G1 X21.318 Y87.577 E14.63651
G1 X21.078 Y86.846 E14.6621
G1 X20.915 Y86.095 E14.68766
G1 X20.831 Y85.33 E14.71325
G1 X20.819 Y84.906 E14.72736
G1 X20.818 Y77.302 E14.98027
G1 X20.596 Y76.821 E14.99789
G1 X20.349 Y76.093 E15.02346
G1 X20.177 Y75.343 E15.04905
G1 X20.085 Y74.58 E15.07462
G1 X20.068 Y74.075 E15.09142
G1 X20.069 Y48.866 E15.92988
G1 X20.109 Y48.098 E15.95545
G1 X20.229 Y47.338 E15.98105
G1 X20.426 Y46.594 E16.00664
G1 X20.7 Y45.876 E16.0322
G1 X20.819 Y45.64 E16.041
G1 X20.819 Y38.037 E16.29387
G1 X20.859 Y37.269 E16.31945
G1 X20.978 Y36.509 E16.34504
G1 X21.176 Y35.766 E16.37061
G1 X21.45 Y35.047 E16.3962
G1 X21.797 Y34.361 E16.42177
G1 X22.213 Y33.714 E16.44736
G1 X22.694 Y33.114 E16.47293
G1 X22.986 Y32.804 E16.4871
G1 X23.103 Y32.687 E16.4926
G1 X23.675 Y32.173 E16.51818
G0 F6000 X23.943 Y32.47
G1 F1200 X24.549 Y32.033 E16.54303
G1 X25.199 Y31.662 E16.56792
G1 X25.885 Y31.363 E16.59281
G1 X26.599 Y31.139 E16.6177
G1 X27.332 Y30.992 E16.64256
G1 X28.336 Y30.92 E16.67604
G1 X81.204 Y30.92 E18.43444
G1 X81.951 Y30.96 E18.45932
G1 X82.689 Y31.079 E18.48418
G1 X83.411 Y31.277 E18.50908
G1 X84.107 Y31.55 E18.53395
G1 X84.77 Y31.897 E18.55884
G1 X85.393 Y32.312 E18.58374
G1 X86.154 Y32.97 E18.6172
G1 X86.271 Y33.087 E18.6227
G1 X86.771 Y33.644 E18.6476
G1 X87.208 Y34.25 E18.67245
G1 X87.579 Y34.9 E18.69734
G1 X87.878 Y35.586 E18.72223
G1 X88.102 Y36.3 E18.74712
G1 X88.249 Y37.033 E18.77198
G1 X88.321 Y38.036 E18.80543
G1 X88.322 Y45.734 E19.06146
G1 X88.429 Y45.937 E19.0691
G1 X88.705 Y46.632 E19.09397
G1 X88.906 Y47.353 E19.11886
G1 X89.028 Y48.091 E19.14374
G1 X89.071 Y48.866 E19.16956
G1 X89.072 Y74.075 E20.00801
G1 X89.032 Y74.822 E20.03289
G1 X88.913 Y75.56 E20.05776
G1 X88.715 Y76.282 E20.08266
G1 X88.442 Y76.978 E20.10752
G1 X88.321 Y77.209 E20.1162
G1 X88.321 Y84.905 E20.37217
G1 X88.281 Y85.652 E20.39705
G1 X88.162 Y86.39 E20.42191
G1 X87.964 Y87.112 E20.44681
G1 X87.691 Y87.808 E20.47168
G1 X87.344 Y88.471 E20.49657
G1 X86.929 Y89.094 E20.52146
G1 X86.271 Y89.855 E20.55492
G1 X86.154 Y89.972 E20.56043
G1 X85.597 Y90.472 E20.58532
G1 X84.991 Y90.909 E20.61017
G1 X84.341 Y91.28 E20.63507
G1 X83.655 Y91.579 E20.65996
G1 X82.941 Y91.803 E20.68484
G1 X82.208 Y91.95 E20.70971
G1 X81.204 Y92.022 E20.74319
G1 X28.336 Y92.022 E22.50158
G1 X27.589 Y91.982 E22.52647
G1 X26.851 Y91.863 E22.55133
G1 X26.129 Y91.665 E22.57623
G1 X25.433 Y91.392 E22.6011
G1 X24.77 Y91.045 E22.62598
G1 X24.147 Y90.63 E22.65088
G1 X23.386 Y89.972 E22.68434
G1 X23.269 Y89.855 E22.68985
G1 X22.769 Y89.298 E22.71474
G1 X22.332 Y88.692 E22.73959
G1 X21.961 Y88.042 E22.76448
G1 X21.662 Y87.356 E22.78937
G1 X21.438 Y86.642 E22.81426
G1 X21.291 Y85.909 E22.83913
G1 X21.219 Y84.906 E22.87257
G1 X21.218 Y77.209 E23.12858
G1 X21.109 Y77.002 E23.13636
G1 X20.833 Y76.307 E23.16123
G1 X20.633 Y75.586 E23.18612
G1 X20.511 Y74.848 E23.21099
G1 X20.468 Y74.075 E23.23674
G1 X20.469 Y48.866 E24.0752
G1 X20.509 Y48.119 E24.10008
G1 X20.628 Y47.38 E24.12498
G1 X20.826 Y46.659 E24.14984
G1 X21.1 Y45.962 E24.17475
G1 X21.219 Y45.734 E24.18331
G1 X21.219 Y38.037 E24.43931
G1 X21.259 Y37.29 E24.46419
G1 X21.378 Y36.552 E24.48905
G1 X21.576 Y35.83 E24.51395
G1 X21.849 Y35.134 E24.53882
G1 X22.196 Y34.471 E24.56371
G1 X22.611 Y33.848 E24.58861
G1 X23.269 Y33.087 E24.62207
G1 X23.386 Y32.97 E24.62757
G1 X23.943 Y32.47 E24.65247
G0 F6000 X24.21 Y32.769
G1 F1200 X24.801 Y32.346 E24.67664
G1 X25.435 Y31.992 E24.70079
G1 X26.104 Y31.709 E24.72495
G1 X26.8 Y31.501 E24.74911
G1 X27.515 Y31.371 E24.77328
G1 X28.336 Y31.32 E24.80064
G1 X81.204 Y31.32 E26.55904
G1 X81.929 Y31.36 E26.58319
G1 X82.646 Y31.479 E26.60736
G1 X83.345 Y31.677 E26.63153
G1 X84.018 Y31.95 E26.65568
G1 X84.657 Y32.295 E26.67983
G1 X85.254 Y32.709 E26.704
G1 X85.871 Y33.253 E26.73136
G1 X85.988 Y33.37 E26.73686
G1 X86.472 Y33.911 E26.761
G1 X86.895 Y34.502 E26.78518
G1 X87.249 Y35.136 E26.80933
G1 X87.532 Y35.805 E26.83349
G1 X87.74 Y36.501 E26.85765
G1 X87.87 Y37.216 E26.88182
G1 X87.921 Y38.036 E26.90915
G1 X87.922 Y45.814 E27.16784
G1 X88.214 Y46.453 E27.19121
G1 X88.442 Y47.143 E27.21538
G1 X88.593 Y47.854 E27.23956
G1 X88.671 Y48.866 E27.27331
G1 X88.672 Y74.075 E28.11177
G1 X88.632 Y74.8 E28.13592
G1 X88.513 Y75.516 E28.16006
G1 X88.315 Y76.216 E28.18426
G1 X88.042 Y76.889 E28.20841
G1 X87.921 Y77.113 E28.21688
G1 X87.921 Y84.905 E28.47604
G1 X87.881 Y85.63 E28.50019
G1 X87.762 Y86.347 E28.52437
G1 X87.564 Y87.046 E28.54853
G1 X87.291 Y87.719 E28.57269
G1 X86.946 Y88.358 E28.59684
G1 X86.532 Y88.955 E28.621
G1 X85.988 Y89.572 E28.64836
G1 X85.871 Y89.689 E28.65386
G1 X85.33 Y90.173 E28.67801
G1 X84.739 Y90.596 E28.70218
G1 X84.105 Y90.95 E28.72633
G1 X83.436 Y91.233 E28.75049
G1 X82.74 Y91.441 E28.77465
G1 X82.025 Y91.571 E28.79882
G1 X81.204 Y91.622 E28.82618
G1 X28.336 Y91.622 E30.58458
G1 X27.611 Y91.582 E30.60873
G1 X26.894 Y91.463 E30.6329
G1 X26.195 Y91.265 E30.65707
G1 X25.522 Y90.992 E30.68122
G1 X24.883 Y90.647 E30.70538
G1 X24.286 Y90.233 E30.72954
G1 X23.669 Y89.689 E30.7569
G1 X23.552 Y89.572 E30.7624
G1 X23.068 Y89.031 E30.78655
G1 X22.645 Y88.44 E30.81072
G1 X22.291 Y87.806 E30.83487
G1 X22.008 Y87.137 E30.85903
G1 X21.8 Y86.441 E30.88319
G1 X21.67 Y85.726 E30.90736
G1 X21.619 Y84.906 E30.93469
G1 X21.618 Y77.13 E31.19332
G1 X21.324 Y76.486 E31.21686
G1 X21.096 Y75.796 E31.24103
G1 X20.946 Y75.086 E31.26517
G1 X20.868 Y74.075 E31.2989
G1 X20.869 Y48.866 E32.13735
G1 X20.909 Y48.14 E32.16153
G1 X21.028 Y47.424 E32.18567
G1 X21.226 Y46.725 E32.20984
G1 X21.499 Y46.052 E32.23399
G1 X21.619 Y45.83 E32.24239
G1 X21.619 Y38.037 E32.50158
G1 X21.659 Y37.312 E32.52573
G1 X21.778 Y36.595 E32.54991
G1 X21.976 Y35.896 E32.57407
G1 X22.249 Y35.223 E32.59823
G1 X22.594 Y34.584 E32.62238
G1 X23.008 Y33.987 E32.64654
G1 X23.552 Y33.37 E32.6739
G1 X23.669 Y33.253 E32.67941
G1 X24.21 Y32.769 E32.70355
G0 F6000 X24.477 Y33.067
G1 F1200 X25.052 Y32.661 E32.72696
G1 X25.67 Y32.323 E32.75039
G1 X26.321 Y32.056 E32.77379
G1 X26.999 Y31.866 E32.79721
G1 X27.694 Y31.753 E32.82063
G1 X28.336 Y31.72 E32.84201
G1 X81.204 Y31.72 E34.60041
G1 X81.907 Y31.76 E34.62383
G1 X82.601 Y31.879 E34.64725
G1 X83.276 Y32.077 E34.67064
G1 X83.925 Y32.349 E34.69405
G1 X84.539 Y32.694 E34.71747
G1 X85.11 Y33.105 E34.74087
G1 X85.588 Y33.536 E34.76228
G1 X85.705 Y33.653 E34.76778
G1 X86.174 Y34.178 E34.7912
G1 X86.58 Y34.753 E34.81461
G1 X86.918 Y35.371 E34.83804
G1 X87.185 Y36.022 E34.86144
G1 X87.375 Y36.7 E34.88486
G1 X87.488 Y37.395 E34.90828
G1 X87.521 Y38.036 E34.92963
G1 X87.522 Y45.931 E35.19222
G1 X87.72 Y46.31 E35.20644
G1 X87.973 Y46.967 E35.22985
G1 X88.15 Y47.649 E35.25329
G1 X88.249 Y48.346 E35.2767
G1 X88.271 Y48.866 E35.29401
G1 X88.272 Y74.075 E36.13247
G1 X88.232 Y74.778 E36.15589
G1 X88.113 Y75.471 E36.17928
G1 X87.915 Y76.147 E36.2027
G1 X87.643 Y76.796 E36.22611
G1 X87.521 Y77.013 E36.23439
G1 X87.521 Y84.905 E36.49688
G1 X87.481 Y85.608 E36.5203
G1 X87.362 Y86.302 E36.54372
G1 X87.164 Y86.977 E36.56711
G1 X86.892 Y87.626 E36.59052
G1 X86.547 Y88.24 E36.61394
G1 X86.136 Y88.811 E36.63734
G1 X85.705 Y89.289 E36.65875
G1 X85.588 Y89.406 E36.66425
G1 X85.063 Y89.875 E36.68767
G1 X84.488 Y90.281 E36.71108
G1 X83.87 Y90.619 E36.73451
G1 X83.219 Y90.886 E36.75791
G1 X82.541 Y91.076 E36.78133
G1 X81.846 Y91.189 E36.80475
G1 X81.204 Y91.222 E36.82613
G1 X28.336 Y91.222 E38.58453
G1 X27.633 Y91.182 E38.60795
G1 X26.939 Y91.063 E38.63137
G1 X26.264 Y90.865 E38.65476
G1 X25.615 Y90.593 E38.67817
G1 X25.001 Y90.248 E38.70159
G1 X24.43 Y89.837 E38.72499
G1 X23.952 Y89.406 E38.7464
G1 X23.835 Y89.289 E38.7519
G1 X23.366 Y88.764 E38.77532
G1 X22.96 Y88.189 E38.79873
G1 X22.622 Y87.571 E38.82216
G1 X22.355 Y86.92 E38.84556
G1 X22.165 Y86.242 E38.86898
G1 X22.052 Y85.547 E38.8924
G1 X22.019 Y84.906 E38.91374
G1 X22.018 Y77.01 E39.17637
G1 X21.819 Y76.629 E39.19066
G1 X21.565 Y75.972 E39.21409
G1 X21.388 Y75.291 E39.23749
G1 X21.29 Y74.594 E39.2609
G1 X21.268 Y74.075 E39.27818
G1 X21.269 Y48.866 E40.11664
G1 X21.309 Y48.163 E40.14006
G1 X21.428 Y47.469 E40.16348
G1 X21.626 Y46.793 E40.1869
G1 X21.898 Y46.144 E40.21031
G1 X22.019 Y45.929 E40.21851
G1 X22.019 Y38.037 E40.481
G1 X22.059 Y37.334 E40.50442
G1 X22.178 Y36.64 E40.52784
G1 X22.376 Y35.965 E40.55124
G1 X22.648 Y35.316 E40.57464
G1 X22.993 Y34.702 E40.59807
G1 X23.404 Y34.131 E40.62147
G1 X23.835 Y33.653 E40.64288
G1 X23.952 Y33.536 E40.64838
G1 X24.477 Y33.067 E40.67179
G0 F6000 X24.744 Y33.366
G1 F1200 X25.302 Y32.977 E40.69442
G1 X25.902 Y32.655 E40.71707
G1 X26.536 Y32.406 E40.73972
G1 X27.195 Y32.233 E40.76238
G1 X27.869 Y32.139 E40.78502
G1 X28.336 Y32.12 E40.80056
G1 X81.204 Y32.12 E42.55896
G1 X81.884 Y32.16 E42.58161
G1 X82.554 Y32.279 E42.60425
G1 X83.206 Y32.476 E42.6269
G1 X83.83 Y32.748 E42.64954
G1 X84.418 Y33.092 E42.6722
G1 X84.962 Y33.502 E42.69486
G1 X85.305 Y33.819 E42.71039
G1 X85.422 Y33.936 E42.71589
G1 X85.875 Y34.445 E42.73856
G1 X86.264 Y35.003 E42.76118
G1 X86.586 Y35.603 E42.78383
G1 X86.835 Y36.237 E42.80648
G1 X87.008 Y36.896 E42.82914
G1 X87.102 Y37.57 E42.85178
G1 X87.121 Y38.036 E42.86729
G1 X87.122 Y46.032 E43.13324
G1 X87.224 Y46.204 E43.13989
G1 X87.501 Y46.826 E43.16254
G1 X87.702 Y47.477 E43.1852
G1 X87.826 Y48.146 E43.20783
G1 X87.871 Y48.866 E43.23182
G1 X87.872 Y74.075 E44.07028
G1 X87.832 Y74.754 E44.0929
G1 X87.713 Y75.425 E44.11556
G1 X87.516 Y76.077 E44.13822
G1 X87.244 Y76.701 E44.16086
G1 X87.121 Y76.911 E44.16895
G1 X87.121 Y84.905 E44.43483
G1 X87.081 Y85.585 E44.45749
G1 X86.962 Y86.255 E44.48012
G1 X86.765 Y86.907 E44.50278
G1 X86.493 Y87.531 E44.52542
G1 X86.149 Y88.119 E44.54808
G1 X85.739 Y88.663 E44.57073
G1 X85.422 Y89.006 E44.58627
G1 X85.305 Y89.123 E44.59177
G1 X84.796 Y89.576 E44.61443
G1 X84.238 Y89.965 E44.63706
G1 X83.638 Y90.287 E44.65971
G1 X83.004 Y90.536 E44.68236
G1 X82.345 Y90.709 E44.70502
G1 X81.671 Y90.803 E44.72766
G1 X81.204 Y90.822 E44.7432
G1 X28.336 Y90.822 E46.5016
G1 X27.656 Y90.782 E46.52425
G1 X26.986 Y90.663 E46.54689
G1 X26.334 Y90.466 E46.56954
G1 X25.71 Y90.194 E46.59218
G1 X25.122 Y89.85 E46.61484
G1 X24.578 Y89.44 E46.6375
G1 X24.235 Y89.123 E46.65303
G1 X24.118 Y89.006 E46.65853
G1 X23.665 Y88.497 E46.6812
G1 X23.276 Y87.939 E46.70382
G1 X22.954 Y87.339 E46.72647
G1 X22.705 Y86.705 E46.74912
G1 X22.532 Y86.046 E46.77179
G1 X22.438 Y85.372 E46.79442
G1 X22.419 Y84.906 E46.80993
G1 X22.418 Y76.911 E47.07585
G1 X22.314 Y76.736 E47.08262
G1 X22.038 Y76.113 E47.10528
G1 X21.837 Y75.463 E47.12791
G1 X21.713 Y74.793 E47.15057
