;FLAVOR:Marlin
;TIME:10716
;Filament used: 4.05049m
;Layer height: 0.1
;MINX:13.768
;MINY:15.185
;MINZ:0.2
;MAXX:104.368
;MAXY:83.785
;MAXZ:11.9
;Generated with Cura_SteamEngine 4.12.1
M140 S70
M105
M190 S70
M104 S240
M105
M109 S240
M82 ;absolute extrusion mode
; Ender 3 Custom Start G-code
G92 E0 ; Reset Extruder
G28 ; Home all axes
G1 Z2.0 F3000 ; Move Z Axis up little to prevent scratching of Heat Bed
G1 X0.1 Y20 Z0.3 F5000.0 ; Move to start position
G1 X0.1 Y200.0 Z0.3 F1500.0 E15 ; Draw the first line
G1 X0.4 Y200.0 Z0.3 F5000.0 ; Move to side a little
G1 X0.4 Y20 Z0.3 F1500.0 E30 ; Draw the second line
G92 E0 ; Reset Extruder
G1 Z2.0 F3000 ; Move Z Axis up little to prevent scratching of Heat Bed
G1 X5 Y20 Z0.3 F5000.0 ; Move over to prevent blob squish
G92 E0
G92 E0
G1 F2400 E-4
;LAYER_COUNT:119
;LAYER:0
M106 S127.5
G0 F6000 X27.051 Y17.47 Z0.2
;TYPE:SKIRT
G1 F2400 E0
G1 F1200 X27.637 Y16.94 E0.02628
G1 X28.274 Y16.473 E0.05255
G1 X28.954 Y16.072 E0.07881
G1 X29.672 Y15.742 E0.10509
G1 X30.419 Y15.487 E0.13134
G1 X31.188 Y15.308 E0.1576
G1 X31.971 Y15.208 E0.18386
G1 X32.567 Y15.185 E0.20369
G1 X85.569 Y15.185 E1.96655
G1 X86.358 Y15.225 E1.99282
G1 X87.138 Y15.344 E2.01907
G1 X87.903 Y15.542 E2.04535
G1 X88.643 Y15.816 E2.0716
G1 X89.352 Y16.164 E2.09786
G1 X90.023 Y16.582 E2.12416
G1 X90.647 Y17.065 E2.1504
G1 X91.085 Y17.47 E2.17024
G1 X102.084 Y28.47 E2.68763
G1 X102.613 Y29.056 E2.71388
G1 X103.08 Y29.692 E2.74013
G1 X103.481 Y30.373 E2.76641
G1 X103.811 Y31.09 E2.79267
G1 X104.067 Y31.837 E2.81893
G1 X104.245 Y32.607 E2.84522
G1 X104.345 Y33.39 E2.87147
G1 X104.368 Y33.985 E2.89127
G1 X104.368 Y41.985 E3.15735
G1 X104.328 Y42.774 E3.18363
G1 X104.209 Y43.554 E3.20987
G1 X104.011 Y44.319 E3.23616
G1 X103.737 Y45.059 E3.2624
G1 X103.389 Y45.768 E3.28867
G1 X102.971 Y46.439 E3.31496
G1 X102.488 Y47.063 E3.34121
G1 X102.083 Y47.5 E3.36103
G1 X100.368 Y49.215 E3.4417
G1 X100.368 Y49.755 E3.45966
G1 X102.083 Y51.47 E3.54032
G1 X102.613 Y52.056 E3.5666
G1 X103.08 Y52.692 E3.59285
G1 X103.481 Y53.372 E3.6191
G1 X103.811 Y54.09 E3.64539
G1 X104.066 Y54.837 E3.67164
G1 X104.245 Y55.606 E3.6979
G1 X104.345 Y56.39 E3.72419
G1 X104.368 Y56.985 E3.74399
G1 X104.368 Y64.985 E4.01007
G1 X104.328 Y65.774 E4.03635
G1 X104.209 Y66.554 E4.06259
G1 X104.011 Y67.319 E4.08887
G1 X103.737 Y68.059 E4.11512
G1 X103.389 Y68.768 E4.14139
G1 X102.971 Y69.439 E4.16768
G1 X102.488 Y70.063 E4.19393
G1 X102.084 Y70.5 E4.21372
G1 X91.085 Y81.5 E4.7311
G1 X90.499 Y82.03 E4.75738
G1 X89.862 Y82.497 E4.78365
G1 X89.182 Y82.898 E4.80991
G1 X88.464 Y83.228 E4.83619
G1 X87.717 Y83.483 E4.86245
G1 X86.948 Y83.662 E4.88871
G1 X86.165 Y83.762 E4.91496
G1 X85.569 Y83.785 E4.9348
G1 X32.567 Y83.785 E6.69765
G1 X31.778 Y83.745 E6.72393
G1 X30.998 Y83.626 E6.75017
G1 X30.233 Y83.428 E6.77645
G1 X29.493 Y83.154 E6.8027
G1 X28.784 Y82.806 E6.82897
G1 X28.113 Y82.388 E6.85526
G1 X27.489 Y81.905 E6.88151
G1 X27.051 Y81.5 E6.90135
G1 X16.052 Y70.5 E7.41873
G1 X15.523 Y69.914 E7.44499
G1 X15.056 Y69.278 E7.47123
G1 X14.655 Y68.597 E7.49752
G1 X14.325 Y67.88 E7.52377
G1 X14.069 Y67.133 E7.55003
G1 X13.891 Y66.363 E7.57632
G1 X13.791 Y65.58 E7.60257
G1 X13.768 Y64.985 E7.62238
G1 X13.768 Y56.985 E7.88846
G1 X13.808 Y56.196 E7.91474
G1 X13.927 Y55.416 E7.94098
G1 X14.125 Y54.651 E7.96726
G1 X14.399 Y53.911 E7.99351
G1 X14.747 Y53.202 E8.01978
G1 X15.165 Y52.531 E8.04607
G1 X15.648 Y51.907 E8.07231
G1 X16.053 Y51.47 E8.09213
G1 X17.768 Y49.755 E8.1728
G1 X17.768 Y49.215 E8.19076
G1 X16.053 Y47.5 E8.27143
G1 X15.523 Y46.914 E8.29771
G1 X15.056 Y46.278 E8.32395
G1 X14.655 Y45.598 E8.35021
G1 X14.325 Y44.88 E8.37649
G1 X14.07 Y44.133 E8.40274
G1 X13.891 Y43.364 E8.429
G1 X13.791 Y42.58 E8.45529
G1 X13.768 Y41.985 E8.4751
G1 X13.768 Y33.985 E8.74118
G1 X13.808 Y33.196 E8.76745
G1 X13.927 Y32.416 E8.7937
G1 X14.125 Y31.651 E8.81998
G1 X14.399 Y30.911 E8.84622
G1 X14.747 Y30.202 E8.87249
G1 X15.165 Y29.531 E8.89879
G1 X15.648 Y28.907 E8.92503
G1 X16.052 Y28.47 E8.94483
G1 X27.051 Y17.47 E9.46221
G0 F6000 X27.334 Y17.753
G1 F1200 X27.906 Y17.238 E9.48781
G1 X28.527 Y16.785 E9.51337
G1 X29.193 Y16.399 E9.53898
G1 X29.895 Y16.084 E9.56457
G1 X30.625 Y15.844 E9.59013
G1 X31.377 Y15.681 E9.61572
G1 X32.141 Y15.597 E9.64128
G1 X32.567 Y15.585 E9.65546
G1 X85.569 Y15.585 E11.41831
G1 X86.337 Y15.625 E11.44389
G1 X87.097 Y15.744 E11.46948
G1 X87.84 Y15.942 E11.49505
G1 X88.559 Y16.216 E11.52064
G1 X89.245 Y16.563 E11.54621
G1 X89.892 Y16.979 E11.5718
G1 X90.492 Y17.46 E11.59737
G1 X90.802 Y17.753 E11.61156
G1 X101.801 Y28.753 E12.12894
G1 X102.316 Y29.324 E12.15452
G1 X102.768 Y29.946 E12.18009
G1 X103.154 Y30.611 E12.20566
G1 X103.469 Y31.313 E12.23126
G1 X103.709 Y32.044 E12.25685
G1 X103.872 Y32.796 E12.28244
G1 X103.956 Y33.56 E12.308
G1 X103.968 Y33.985 E12.32214
G1 X103.968 Y41.985 E12.58822
G1 X103.928 Y42.753 E12.6138
G1 X103.809 Y43.513 E12.63939
G1 X103.611 Y44.256 E12.66496
G1 X103.337 Y44.975 E12.69056
G1 X102.99 Y45.661 E12.71612
G1 X102.574 Y46.308 E12.74171
G1 X102.093 Y46.908 E12.76729
G1 X101.801 Y47.218 E12.78145
G1 X99.968 Y49.051 E12.86767
G1 X99.968 Y49.919 E12.89654
G1 X101.801 Y51.752 E12.98276
G1 X102.315 Y52.324 E13.00833
G1 X102.768 Y52.946 E13.03393
G1 X103.154 Y53.611 E13.0595
G1 X103.469 Y54.313 E13.08509
G1 X103.709 Y55.044 E13.11068
G1 X103.872 Y55.795 E13.13624
G1 X103.956 Y56.56 E13.16184
G1 X103.968 Y56.985 E13.17598
G1 X103.968 Y64.985 E13.44206
G1 X103.928 Y65.753 E13.46764
G1 X103.809 Y66.513 E13.49323
G1 X103.611 Y67.256 E13.5188
G1 X103.337 Y67.975 E13.54439
G1 X102.99 Y68.661 E13.56996
G1 X102.574 Y69.308 E13.59555
G1 X102.093 Y69.908 E13.62112
G1 X101.801 Y70.217 E13.63526
G1 X90.802 Y81.217 E14.15265
G1 X90.23 Y81.732 E14.17825
G1 X89.609 Y82.185 E14.20381
G1 X88.943 Y82.571 E14.22941
G1 X88.241 Y82.886 E14.25501
G1 X87.511 Y83.126 E14.28056
G1 X86.759 Y83.289 E14.30616
G1 X85.995 Y83.373 E14.33172
G1 X85.569 Y83.385 E14.34589
G1 X32.567 Y83.385 E16.10875
G1 X31.799 Y83.345 E16.13433
G1 X31.039 Y83.226 E16.15991
G1 X30.296 Y83.028 E16.18549
G1 X29.577 Y82.754 E16.21108
G1 X28.891 Y82.407 E16.23665
G1 X28.244 Y81.991 E16.26223
G1 X27.644 Y81.51 E16.28781
G1 X27.334 Y81.217 E16.302
G1 X16.335 Y70.217 E16.81938
G1 X15.82 Y69.646 E16.84495
G1 X15.368 Y69.024 E16.87053
G1 X14.982 Y68.359 E16.8961
G1 X14.667 Y67.657 E16.92169
G1 X14.427 Y66.926 E16.94728
G1 X14.264 Y66.174 E16.97287
G1 X14.18 Y65.41 E16.99844
G1 X14.168 Y64.985 E17.01258
G1 X14.168 Y56.985 E17.27866
G1 X14.208 Y56.217 E17.30424
G1 X14.327 Y55.457 E17.32983
G1 X14.525 Y54.714 E17.3554
G1 X14.799 Y53.995 E17.38099
G1 X15.146 Y53.309 E17.40656
G1 X15.562 Y52.662 E17.43214
G1 X16.043 Y52.062 E17.45772
G1 X16.335 Y51.752 E17.47189
G1 X18.168 Y49.919 E17.5581
G1 X18.168 Y49.051 E17.58697
G1 X16.335 Y47.218 E17.67319
G1 X15.821 Y46.646 E17.69877
G1 X15.368 Y46.024 E17.72436
G1 X14.982 Y45.359 E17.74994
G1 X14.667 Y44.657 E17.77553
G1 X14.427 Y43.926 E17.80112
G1 X14.264 Y43.175 E17.82668
G1 X14.18 Y42.41 E17.85228
G1 X14.168 Y41.985 E17.86642
G1 X14.168 Y33.985 E18.1325
G1 X14.208 Y33.217 E18.15808
G1 X14.327 Y32.457 E18.18366
G1 X14.525 Y31.714 E18.20924
G1 X14.799 Y30.995 E18.23483
G1 X15.146 Y30.309 E18.2604
G1 X15.562 Y29.662 E18.28598
G1 X16.043 Y29.062 E18.31156
G1 X16.335 Y28.753 E18.3257
G1 X27.334 Y17.753 E18.84308
G0 F6000 X27.617 Y18.035
G1 F1200 X28.173 Y17.536 E18.86793
G1 X28.78 Y17.098 E18.89283
G1 X29.43 Y16.727 E18.91772
G1 X30.116 Y16.428 E18.94261
G1 X30.829 Y16.204 E18.96747
G1 X31.563 Y16.057 E18.99236
G1 X32.567 Y15.985 E19.02584
G1 X85.569 Y15.985 E20.7887
G1 X86.316 Y16.025 E20.81358
G1 X87.054 Y16.144 E20.83844
G1 X87.776 Y16.342 E20.86334
G1 X88.472 Y16.615 E20.88821
G1 X89.135 Y16.962 E20.9131
G1 X89.758 Y17.377 E20.93799
G1 X90.519 Y18.035 E20.97145
G1 X101.518 Y29.035 E21.48884
G1 X102.018 Y29.592 E21.51373
G1 X102.456 Y30.199 E21.53863
G1 X102.826 Y30.849 E21.5635
G1 X103.125 Y31.534 E21.58836
G1 X103.349 Y32.248 E21.61325
G1 X103.496 Y32.982 E21.63815
G1 X103.568 Y33.985 E21.6716
G1 X103.568 Y41.985 E21.93768
G1 X103.528 Y42.732 E21.96256
G1 X103.409 Y43.47 E21.98742
G1 X103.211 Y44.192 E22.01232
G1 X102.938 Y44.888 E22.03719
G1 X102.591 Y45.551 E22.06208
G1 X102.176 Y46.174 E22.08697
G1 X101.518 Y46.935 E22.12043
G1 X99.568 Y48.885 E22.21216
G1 X99.568 Y50.085 E22.25207
G1 X101.518 Y52.035 E22.34379
G1 X102.018 Y52.592 E22.36869
G1 X102.455 Y53.198 E22.39353
G1 X102.826 Y53.848 E22.41843
G1 X103.125 Y54.534 E22.44332
G1 X103.349 Y55.248 E22.46821
G1 X103.496 Y55.981 E22.49307
G1 X103.568 Y56.985 E22.52655
G1 X103.568 Y64.985 E22.79263
G1 X103.528 Y65.732 E22.81751
G1 X103.409 Y66.47 E22.84238
G1 X103.211 Y67.192 E22.86728
G1 X102.938 Y67.888 E22.89214
G1 X102.591 Y68.551 E22.91703
G1 X102.176 Y69.174 E22.94193
G1 X101.518 Y69.935 E22.97539
G1 X90.519 Y80.935 E23.49277
G1 X89.963 Y81.434 E23.51762
G1 X89.356 Y81.872 E23.54252
G1 X88.706 Y82.243 E23.56741
G1 X88.02 Y82.542 E23.5923
G1 X87.307 Y82.766 E23.61716
G1 X86.573 Y82.913 E23.64205
G1 X85.569 Y82.985 E23.67553
G1 X32.567 Y82.985 E25.43839
G1 X31.82 Y82.945 E25.46327
G1 X31.082 Y82.826 E25.48813
G1 X30.36 Y82.628 E25.51303
G1 X29.664 Y82.355 E25.5379
G1 X29.001 Y82.008 E25.56279
G1 X28.378 Y81.593 E25.58768
G1 X27.617 Y80.935 E25.62114
G1 X16.618 Y69.935 E26.13853
G1 X16.118 Y69.378 E26.16342
G1 X15.68 Y68.771 E26.18832
G1 X15.31 Y68.121 E26.21319
G1 X15.011 Y67.436 E26.23805
G1 X14.787 Y66.722 E26.26294
G1 X14.64 Y65.988 E26.28784
G1 X14.568 Y64.985 E26.32129
G1 X14.568 Y56.985 E26.58737
G1 X14.608 Y56.238 E26.61225
G1 X14.727 Y55.5 E26.63711
G1 X14.925 Y54.778 E26.66201
G1 X15.198 Y54.082 E26.68688
G1 X15.545 Y53.419 E26.71177
G1 X15.96 Y52.796 E26.73666
G1 X16.618 Y52.035 E26.77012
G1 X18.568 Y50.085 E26.86185
G1 X18.568 Y48.885 E26.90176
G1 X16.618 Y46.935 E26.99348
G1 X16.118 Y46.378 E27.01838
G1 X15.681 Y45.772 E27.04323
G1 X15.31 Y45.122 E27.06812
G1 X15.011 Y44.436 E27.09301
G1 X14.787 Y43.722 E27.1179
G1 X14.64 Y42.989 E27.14276
G1 X14.568 Y41.985 E27.17624
G1 X14.568 Y33.985 E27.44232
G1 X14.608 Y33.238 E27.4672
G1 X14.727 Y32.5 E27.49207
G1 X14.925 Y31.778 E27.51697
G1 X15.198 Y31.082 E27.54183
G1 X15.545 Y30.419 E27.56672
G1 X15.96 Y29.796 E27.59162
G1 X16.618 Y29.035 E27.62508
G1 X27.617 Y18.035 E28.14246
G0 F6000 X27.9 Y18.318
G1 F1200 X28.441 Y17.834 E28.16661
G1 X29.032 Y17.412 E28.19076
G1 X29.666 Y17.057 E28.21493
G1 X30.335 Y16.774 E28.23909
G1 X31.031 Y16.566 E28.26325
G1 X31.746 Y16.436 E28.28742
G1 X32.567 Y16.385 E28.31478
G1 X85.569 Y16.385 E30.07763
G1 X86.294 Y16.425 E30.10178
G1 X87.011 Y16.544 E30.12596
G1 X87.71 Y16.742 E30.15012
G1 X88.383 Y17.015 E30.17427
G1 X89.022 Y17.36 E30.19843
G1 X89.619 Y17.774 E30.22259
G1 X90.236 Y18.318 E30.24995
G1 X101.235 Y29.318 E30.76733
G1 X101.72 Y29.859 E30.7915
G1 X102.142 Y30.451 E30.81568
G1 X102.496 Y31.084 E30.8398
G1 X102.779 Y31.753 E30.86396
G1 X102.987 Y32.45 E30.88815
G1 X103.117 Y33.164 E30.91229
G1 X103.168 Y33.985 E30.93965
G1 X103.168 Y41.985 E31.20573
G1 X103.128 Y42.71 E31.22988
G1 X103.009 Y43.427 E31.25406
G1 X102.811 Y44.126 E31.27822
G1 X102.538 Y44.799 E31.30238
G1 X102.193 Y45.438 E31.32653
G1 X101.779 Y46.035 E31.35069
G1 X101.235 Y46.652 E31.37805
G1 X99.168 Y48.719 E31.47528
G1 X99.168 Y50.251 E31.52623
G1 X101.235 Y52.318 E31.62346
G1 X101.719 Y52.859 E31.6476
G1 X102.142 Y53.45 E31.67177
G1 X102.496 Y54.084 E31.69592
G1 X102.779 Y54.753 E31.72008
G1 X102.987 Y55.449 E31.74424
G1 X103.117 Y56.164 E31.76842
G1 X103.168 Y56.985 E31.79577
G1 X103.168 Y64.985 E32.06186
G1 X103.128 Y65.71 E32.08601
G1 X103.009 Y66.427 E32.11018
G1 X102.811 Y67.126 E32.13434
G1 X102.538 Y67.799 E32.1585
G1 X102.193 Y68.438 E32.18265
G1 X101.779 Y69.035 E32.20682
G1 X101.235 Y69.652 E32.23417
G1 X90.236 Y80.652 E32.75156
G1 X89.695 Y81.136 E32.7757
G1 X89.104 Y81.558 E32.79985
G1 X88.47 Y81.913 E32.82402
G1 X87.801 Y82.196 E32.84818
G1 X87.105 Y82.404 E32.87234
G1 X86.39 Y82.534 E32.89651
G1 X85.569 Y82.585 E32.92387
G1 X32.567 Y82.585 E34.68673
G1 X31.842 Y82.545 E34.71088
G1 X31.125 Y82.426 E34.73505
G1 X30.426 Y82.228 E34.75921
G1 X29.753 Y81.955 E34.78337
G1 X29.114 Y81.61 E34.80752
G1 X28.517 Y81.196 E34.83169
G1 X27.9 Y80.652 E34.85904
G1 X16.901 Y69.652 E35.37643
G1 X16.416 Y69.111 E35.40059
G1 X15.994 Y68.519 E35.42477
G1 X15.64 Y67.886 E35.4489
G1 X15.357 Y67.217 E35.47306
G1 X15.149 Y66.52 E35.49725
G1 X15.019 Y65.806 E35.52139
G1 X14.968 Y64.985 E35.54875
G1 X14.968 Y56.985 E35.81483
G1 X15.008 Y56.26 E35.83898
G1 X15.127 Y55.543 E35.86315
G1 X15.325 Y54.844 E35.88731
G1 X15.598 Y54.171 E35.91147
G1 X15.943 Y53.532 E35.93562
G1 X16.357 Y52.935 E35.95979
G1 X16.901 Y52.318 E35.98715
G1 X18.968 Y50.251 E36.08437
G1 X18.968 Y48.719 E36.13533
G1 X16.901 Y46.652 E36.23255
G1 X16.417 Y46.111 E36.25669
G1 X15.994 Y45.52 E36.28087
G1 X15.64 Y44.886 E36.30502
G1 X15.357 Y44.217 E36.32918
G1 X15.149 Y43.521 E36.35334
G1 X15.019 Y42.806 E36.37751
G1 X14.968 Y41.985 E36.40487
G1 X14.968 Y33.985 E36.67095
G1 X15.008 Y33.26 E36.6951
G1 X15.127 Y32.543 E36.71927
G1 X15.325 Y31.844 E36.74344
G1 X15.598 Y31.171 E36.76759
G1 X15.943 Y30.532 E36.79175
G1 X16.357 Y29.935 E36.81591
G1 X16.901 Y29.318 E36.84327
G1 X27.9 Y18.318 E37.36065
G0 F6000 X28.183 Y18.601
G1 F1200 X28.708 Y18.132 E37.38407
G1 X29.283 Y17.726 E37.40748
G1 X29.9 Y17.388 E37.43088
G1 X30.552 Y17.122 E37.4543
G1 X31.23 Y16.931 E37.47773
G1 X31.925 Y16.818 E37.50115
G1 X32.567 Y16.785 E37.52253
G1 X85.569 Y16.785 E39.28538
G1 X86.272 Y16.825 E39.3088
G1 X86.966 Y16.944 E39.33222
G1 X87.641 Y17.142 E39.35562
G1 X88.29 Y17.414 E39.37902
G1 X88.904 Y17.759 E39.40245
G1 X89.475 Y18.17 E39.42585
G1 X89.953 Y18.601 E39.44725
G1 X100.952 Y29.601 E39.96463
G1 X101.421 Y30.126 E39.98805
G1 X101.827 Y30.701 E40.01146
G1 X102.165 Y31.319 E40.03489
G1 X102.432 Y31.971 E40.05832
G1 X102.622 Y32.648 E40.08171
G1 X102.735 Y33.343 E40.10513
G1 X102.768 Y33.985 E40.12651
G1 X102.768 Y41.985 E40.39259
G1 X102.728 Y42.688 E40.41601
G1 X102.609 Y43.382 E40.43943
G1 X102.411 Y44.057 E40.46283
G1 X102.139 Y44.706 E40.48623
G1 X101.794 Y45.32 E40.50966
G1 X101.383 Y45.891 E40.53306
G1 X100.952 Y46.369 E40.55446
G1 X98.768 Y48.553 E40.65719
G1 X98.768 Y50.417 E40.71919
G1 X100.952 Y52.601 E40.82192
G1 X101.421 Y53.126 E40.84533
G1 X101.827 Y53.701 E40.86874
G1 X102.165 Y54.319 E40.89217
G1 X102.432 Y54.97 E40.91557
G1 X102.622 Y55.648 E40.93899
G1 X102.735 Y56.343 E40.96241
G1 X102.768 Y56.985 E40.98379
G1 X102.768 Y64.985 E41.24987
G1 X102.728 Y65.688 E41.27329
G1 X102.609 Y66.382 E41.29671
G1 X102.411 Y67.057 E41.32011
G1 X102.139 Y67.706 E41.34352
G1 X101.794 Y68.32 E41.36694
G1 X101.383 Y68.891 E41.39034
G1 X100.952 Y69.369 E41.41175
G1 X89.953 Y80.369 E41.92913
G1 X89.428 Y80.838 E41.95254
G1 X88.853 Y81.244 E41.97596
G1 X88.236 Y81.582 E41.99935
G1 X87.584 Y81.848 E42.02278
G1 X86.906 Y82.039 E42.0462
G1 X86.211 Y82.152 E42.06962
G1 X85.569 Y82.185 E42.091
G1 X32.567 Y82.185 E43.85386
G1 X31.864 Y82.145 E43.87728
G1 X31.17 Y82.026 E43.9007
G1 X30.495 Y81.828 E43.92409
G1 X29.846 Y81.556 E43.9475
G1 X29.232 Y81.211 E43.97092
G1 X28.661 Y80.8 E43.99432
G1 X28.183 Y80.369 E44.01573
G1 X17.184 Y69.369 E44.53311
G1 X16.715 Y68.844 E44.55653
G1 X16.309 Y68.269 E44.57994
G1 X15.971 Y67.651 E44.60337
G1 X15.704 Y66.999 E44.6268
G1 X15.514 Y66.322 E44.65019
G1 X15.401 Y65.627 E44.67361
G1 X15.368 Y64.985 E44.69499
G1 X15.368 Y56.985 E44.96107
G1 X15.408 Y56.282 E44.98449
G1 X15.527 Y55.588 E45.00791
G1 X15.725 Y54.913 E45.0313
G1 X15.997 Y54.264 E45.05471
G1 X16.342 Y53.65 E45.07813
G1 X16.753 Y53.079 E45.10153
G1 X17.184 Y52.601 E45.12294
G1 X19.368 Y50.417 E45.22567
G1 X19.368 Y48.553 E45.28767
G1 X17.184 Y46.369 E45.39039
G1 X16.715 Y45.844 E45.41381
G1 X16.309 Y45.269 E45.43722
G1 X15.971 Y44.651 E45.46065
G1 X15.704 Y44 E45.48405
G1 X15.514 Y43.322 E45.50747
G1 X15.401 Y42.627 E45.53089
G1 X15.368 Y41.985 E45.55227
G1 X15.368 Y33.985 E45.81835
G1 X15.408 Y33.282 E45.84177
G1 X15.527 Y32.588 E45.86519
G1 X15.725 Y31.913 E45.88859
G1 X15.997 Y31.264 E45.91199
